X: 0
T: Willie Anderson's Farewell to Dalharn
C: Unknown
M: 2/4
L: 1/16
K: A
|:"A"c3B A2c2 | BcBA "D"F2 AF | "A"E2A2 EFAE | "D"c2B2 "E"B2e2|
"A"c3B A2c2 | BcBA "D"F2 AF | "A"E2A2 GABe | "E"c2A2 A2e2 :|!
 |"A"e2A2 "D"f2A2 |"A"e2A2 BcBA|"A"E2A2 EFAE | "E"c2B2 B2cd |
"F#m"e2A2 f2A2 |"D"e2A2 BcBA|"A"E2A2 GABe | "E"c2A2 A2cd |!
"A"e2A2 "D"f2A2 |"A"e2A2 BcBA|"D"E2A2 EFAE | "E"c2B2 B2e2 |
"A"c3B A2c2 | BcBA "D"F2AF | "A"E2A2 GABe | "E"c2A2 A4 |]